;FLAVOR:Marlin
;TIME:2363
;Filament used: 1.12737m, 0.0754519m
;Layer height: 0.15
;MINX:134.275
;MINY:139.038
;MINZ:0.3
;MAXX:165.725
;MAXY:160.962
;MAXZ:50.7
;Generated with Cura_SteamEngine 4.7.1
T0
M140 S98
M105
M190 S98
M104 S240
M104 T1 S190
M105
M109 S240
M105
M109 T1 S190
M82 ;absolute extrusion mode
G21 ;metric values
G90 ;absolute positioning
M82 ;set extruder to absolute mode
M107 ;start with the fan off
G28 ;Move to min endstops
G1 Z15.0 F9000 ;move the platform down 15mm
M117 Printing...
G92 E0
G92 E0
G1 F1500 E-3
;LAYER_COUNT:337
;LAYER:0
M107 P1
G1 F600 Z1.3
G0 F900 X137.056 Y141.702 Z1.3
;TYPE:SKIRT
G1 F600 Z0.3
G1 F1500 E0
G1 F900 X137.531 Y141.285 E0.03153
G1 X138.054 Y140.93 E0.06307
G1 X138.618 Y140.644 E0.09462
G1 X139.213 Y140.432 E0.12613
G1 X139.831 Y140.296 E0.1577
G1 X140.592 Y140.238 E0.19578
G1 X159.408 Y140.238 E1.13451
G1 X160.039 Y140.278 E1.16606
G1 X160.66 Y140.397 E1.1976
G1 X161.26 Y140.594 E1.22911
G1 X161.832 Y140.865 E1.26069
G1 X162.364 Y141.205 E1.29218
G1 X162.944 Y141.702 E1.33029
G1 X163.061 Y141.819 E1.33855
G1 X163.478 Y142.294 E1.37008
G1 X163.833 Y142.817 E1.40162
G1 X164.119 Y143.381 E1.43317
G1 X164.331 Y143.976 E1.46468
G1 X164.467 Y144.594 E1.49625
G1 X164.525 Y145.355 E1.53432
G1 X164.525 Y154.645 E1.9978
G1 X164.485 Y155.276 E2.02935
G1 X164.366 Y155.897 E2.06089
G1 X164.169 Y156.497 E2.0924
G1 X163.898 Y157.069 E2.12398
G1 X163.558 Y157.601 E2.15548
G1 X163.061 Y158.181 E2.19358
G1 X162.944 Y158.298 E2.20184
G1 X162.469 Y158.715 E2.23337
G1 X161.946 Y159.07 E2.26491
G1 X161.382 Y159.356 E2.29646
G1 X160.787 Y159.568 E2.32797
G1 X160.169 Y159.704 E2.35954
G1 X159.408 Y159.762 E2.39762
G1 X140.592 Y159.762 E3.33635
G1 X139.961 Y159.722 E3.3679
G1 X139.34 Y159.603 E3.39944
G1 X138.74 Y159.406 E3.43095
G1 X138.168 Y159.135 E3.46252
G1 X137.636 Y158.795 E3.49402
G1 X137.056 Y158.298 E3.53213
G1 X136.939 Y158.181 E3.54039
G1 X136.522 Y157.706 E3.57192
G1 X136.167 Y157.183 E3.60346
G1 X135.881 Y156.619 E3.635
G1 X135.669 Y156.024 E3.66652
G1 X135.533 Y155.406 E3.69809
G1 X135.475 Y154.645 E3.73616
G1 X135.475 Y145.355 E4.19964
G1 X135.515 Y144.724 E4.23119
G1 X135.634 Y144.103 E4.26273
G1 X135.831 Y143.503 E4.29424
G1 X136.102 Y142.931 E4.32582
G1 X136.442 Y142.399 E4.35732
G1 X136.939 Y141.819 E4.39542
G1 X137.056 Y141.702 E4.40368
G0 X137.339 Y141.985
G1 X137.795 Y141.586 E4.43391
G1 X138.3 Y141.25 E4.46417
G1 X138.844 Y140.983 E4.4944
G1 X139.419 Y140.79 E4.52466
G1 X140.014 Y140.674 E4.55491
G1 X140.592 Y140.638 E4.5838
G1 X159.408 Y140.638 E5.52253
G1 X160.013 Y140.678 E5.55278
G1 X160.607 Y140.797 E5.58301
G1 X161.181 Y140.993 E5.61327
G1 X161.724 Y141.264 E5.64354
G1 X162.227 Y141.603 E5.6738
G1 X162.661 Y141.985 E5.70265
G1 X162.778 Y142.102 E5.7109
G1 X163.177 Y142.558 E5.74113
G1 X163.513 Y143.063 E5.7714
G1 X163.78 Y143.607 E5.80163
G1 X163.973 Y144.182 E5.83189
G1 X164.089 Y144.777 E5.86213
G1 X164.125 Y145.355 E5.89102
G1 X164.125 Y154.645 E6.3545
G1 X164.085 Y155.25 E6.38475
G1 X163.966 Y155.844 E6.41498
G1 X163.77 Y156.418 E6.44524
G1 X163.499 Y156.961 E6.47551
G1 X163.16 Y157.464 E6.50578
G1 X162.778 Y157.898 E6.53462
G1 X162.661 Y158.015 E6.54288
G1 X162.205 Y158.414 E6.57311
G1 X161.7 Y158.75 E6.60337
G1 X161.156 Y159.017 E6.6336
G1 X160.581 Y159.21 E6.66386
G1 X159.986 Y159.326 E6.6941
G1 X159.408 Y159.362 E6.723
G1 X140.592 Y159.362 E7.66173
G1 X139.987 Y159.322 E7.69198
G1 X139.393 Y159.203 E7.7222
G1 X138.819 Y159.007 E7.75246
G1 X138.276 Y158.736 E7.78274
G1 X137.773 Y158.397 E7.813
G1 X137.339 Y158.015 E7.84185
G1 X137.222 Y157.898 E7.8501
G1 X136.823 Y157.442 E7.88033
G1 X136.487 Y156.937 E7.91059
G1 X136.22 Y156.393 E7.94083
G1 X136.027 Y155.818 E7.97109
G1 X135.911 Y155.223 E8.00133
G1 X135.875 Y154.645 E8.03022
G1 X135.875 Y145.355 E8.4937
G1 X135.915 Y144.75 E8.52395
G1 X136.034 Y144.156 E8.55418
G1 X136.23 Y143.582 E8.58444
G1 X136.501 Y143.039 E8.61471
G1 X136.84 Y142.536 E8.64497
G1 X137.222 Y142.102 E8.67382
G1 X137.339 Y141.985 E8.68207
G0 X137.622 Y142.268
G1 X138.059 Y141.888 E8.71097
G1 X138.544 Y141.571 E8.73987
G1 X139.068 Y141.324 E8.76877
G1 X139.621 Y141.152 E8.79767
G1 X140.193 Y141.057 E8.8266
G1 X140.592 Y141.038 E8.84652
G1 X159.408 Y141.038 E9.78526
G1 X159.986 Y141.078 E9.81416
G1 X160.553 Y141.197 E9.84307
G1 X161.098 Y141.393 E9.87196
G1 X161.611 Y141.662 E9.90086
G1 X162.082 Y141.999 E9.92976
G1 X162.495 Y142.385 E9.95796
G1 X162.875 Y142.822 E9.98685
G1 X163.192 Y143.307 E10.01576
G1 X163.439 Y143.831 E10.04466
G1 X163.611 Y144.384 E10.07355
G1 X163.706 Y144.956 E10.10248
G1 X163.725 Y145.355 E10.12241
G1 X163.725 Y154.645 E10.58589
G1 X163.685 Y155.223 E10.61479
G1 X163.566 Y155.79 E10.6437
G1 X163.37 Y156.335 E10.67259
G1 X163.101 Y156.848 E10.70149
G1 X162.764 Y157.319 E10.73039
G1 X162.378 Y157.732 E10.75859
G1 X161.941 Y158.112 E10.78748
G1 X161.456 Y158.429 E10.81639
G1 X160.932 Y158.676 E10.84529
G1 X160.379 Y158.848 E10.87418
G1 X159.807 Y158.943 E10.90311
G1 X159.408 Y158.962 E10.92304
G1 X140.592 Y158.962 E11.86177
G1 X140.014 Y158.922 E11.89068
G1 X139.447 Y158.803 E11.91958
G1 X138.902 Y158.607 E11.94848
G1 X138.389 Y158.338 E11.97738
G1 X137.918 Y158.001 E12.00627
G1 X137.505 Y157.615 E12.03447
G1 X137.125 Y157.178 E12.06336
G1 X136.808 Y156.693 E12.09227
G1 X136.561 Y156.169 E12.12117
G1 X136.389 Y155.616 E12.15007
G1 X136.294 Y155.044 E12.17899
G1 X136.275 Y154.645 E12.19892
G1 X136.275 Y145.355 E12.6624
G1 X136.315 Y144.777 E12.69131
G1 X136.434 Y144.21 E12.72021
G1 X136.63 Y143.665 E12.74911
G1 X136.899 Y143.152 E12.77801
G1 X137.236 Y142.681 E12.8069
G1 X137.622 Y142.268 E12.8351
G0 X137.905 Y142.551
G1 X138.322 Y142.191 E12.86259
G1 X138.786 Y141.894 E12.89007
G1 X139.289 Y141.668 E12.91758
G1 X139.819 Y141.517 E12.94508
G1 X140.592 Y141.438 E12.98384
G1 X159.408 Y141.438 E13.92258
G1 X159.958 Y141.478 E13.95009
G1 X160.496 Y141.597 E13.97758
G1 X161.011 Y141.793 E14.00507
G1 X161.492 Y142.061 E14.03254
G1 X162.095 Y142.551 E14.07131
G1 X162.212 Y142.668 E14.07956
G1 X162.572 Y143.085 E14.10704
G1 X162.869 Y143.549 E14.13453
G1 X163.095 Y144.052 E14.16204
G1 X163.246 Y144.582 E14.18954
G1 X163.325 Y145.355 E14.2283
G1 X163.325 Y154.645 E14.69178
G1 X163.285 Y155.195 E14.71929
G1 X163.166 Y155.733 E14.74678
G1 X162.97 Y156.248 E14.77427
G1 X162.702 Y156.729 E14.80175
G1 X162.212 Y157.332 E14.84051
G1 X162.095 Y157.449 E14.84876
G1 X161.678 Y157.809 E14.87625
G1 X161.214 Y158.106 E14.90373
G1 X160.711 Y158.332 E14.93125
G1 X160.181 Y158.483 E14.95874
G1 X159.408 Y158.562 E14.99751
G1 X140.592 Y158.562 E15.93624
G1 X140.042 Y158.522 E15.96375
G1 X139.504 Y158.403 E15.99124
G1 X138.989 Y158.207 E16.01873
G1 X138.508 Y157.939 E16.0462
G1 X137.905 Y157.449 E16.08497
G1 X137.788 Y157.332 E16.09322
G1 X137.428 Y156.915 E16.12071
G1 X137.131 Y156.451 E16.14819
G1 X136.905 Y155.948 E16.1757
G1 X136.754 Y155.418 E16.2032
G1 X136.675 Y154.645 E16.24196
G1 X136.675 Y145.355 E16.70544
G1 X136.715 Y144.805 E16.73296
G1 X136.834 Y144.267 E16.76044
G1 X137.03 Y143.752 E16.78794
G1 X137.298 Y143.271 E16.81541
G1 X137.788 Y142.668 E16.85417
G1 X137.905 Y142.551 E16.86243
G0 X138.188 Y142.834
G1 X138.584 Y142.495 E16.88843
G1 X139.026 Y142.22 E16.9144
G1 X139.506 Y142.016 E16.94042
G1 X140.011 Y141.888 E16.96642
G1 X140.592 Y141.838 E16.99551
G1 X159.408 Y141.838 E17.93424
G1 X159.928 Y141.878 E17.96026
G1 X160.435 Y141.997 E17.98624
G1 X160.918 Y142.192 E18.01223
G1 X161.366 Y142.458 E18.03822
G1 X161.812 Y142.834 E18.06733
G1 X161.929 Y142.951 E18.07558
G1 X162.268 Y143.347 E18.10159
G1 X162.543 Y143.789 E18.12756
G1 X162.747 Y144.269 E18.15358
G1 X162.875 Y144.774 E18.17957
G1 X162.925 Y145.355 E18.20867
G1 X162.925 Y154.645 E18.67215
G1 X162.885 Y155.165 E18.69817
G1 X162.766 Y155.672 E18.72415
G1 X162.571 Y156.155 E18.75013
G1 X162.305 Y156.603 E18.77613
G1 X161.929 Y157.049 E18.80523
G1 X161.812 Y157.166 E18.81349
G1 X161.416 Y157.505 E18.83949
G1 X160.974 Y157.78 E18.86546
G1 X160.494 Y157.984 E18.89148
G1 X159.989 Y158.112 E18.91748
G1 X159.408 Y158.162 E18.94657
G1 X140.592 Y158.162 E19.8853
G1 X140.072 Y158.122 E19.91132
G1 X139.565 Y158.003 E19.9373
G1 X139.082 Y157.808 E19.96329
G1 X138.634 Y157.542 E19.98928
G1 X138.188 Y157.166 E20.01839
G1 X138.071 Y157.049 E20.02664
G1 X137.732 Y156.653 E20.05265
G1 X137.457 Y156.211 E20.07862
G1 X137.253 Y155.731 E20.10464
G1 X137.125 Y155.226 E20.13063
G1 X137.075 Y154.645 E20.15973
G1 X137.075 Y145.355 E20.62321
G1 X137.115 Y144.835 E20.64923
G1 X137.234 Y144.328 E20.67521
G1 X137.429 Y143.845 E20.70119
G1 X137.695 Y143.397 E20.72719
G1 X138.071 Y142.951 E20.75629
G1 X138.188 Y142.834 E20.76455
G0 X138.471 Y143.117
G1 X138.844 Y142.8 E20.78897
G1 X139.264 Y142.548 E20.8134
G1 X139.719 Y142.368 E20.83782
G1 X140.197 Y142.264 E20.86222
G1 X140.592 Y142.238 E20.88197
G1 X159.408 Y142.238 E21.8207
G1 X159.896 Y142.278 E21.84513
G1 X160.371 Y142.397 E21.86956
G1 X160.82 Y142.591 E21.89396
G1 X161.232 Y142.856 E21.9184
G1 X161.646 Y143.234 E21.94637
G1 X161.963 Y143.607 E21.97079
G1 X162.215 Y144.027 E21.99523
G1 X162.395 Y144.482 E22.01964
G1 X162.499 Y144.96 E22.04405
G1 X162.525 Y145.355 E22.0638
G1 X162.525 Y154.645 E22.52728
G1 X162.485 Y155.133 E22.55171
G1 X162.366 Y155.608 E22.57614
G1 X162.172 Y156.057 E22.60054
G1 X161.907 Y156.469 E22.62498
G1 X161.529 Y156.883 E22.65295
G1 X161.156 Y157.2 E22.67737
G1 X160.736 Y157.452 E22.7018
G1 X160.281 Y157.632 E22.72622
G1 X159.803 Y157.736 E22.75062
G1 X159.408 Y157.762 E22.77037
G1 X140.592 Y157.762 E23.7091
G1 X140.104 Y157.722 E23.73353
G1 X139.629 Y157.603 E23.75796
G1 X139.18 Y157.409 E23.78236
G1 X138.768 Y157.144 E23.8068
G1 X138.354 Y156.766 E23.83477
G1 X138.037 Y156.393 E23.85919
G1 X137.785 Y155.973 E23.88363
G1 X137.605 Y155.518 E23.90804
G1 X137.501 Y155.04 E23.93245
G1 X137.475 Y154.645 E23.9522
G1 X137.475 Y145.355 E24.41568
G1 X137.515 Y144.867 E24.44011
G1 X137.634 Y144.392 E24.46454
G1 X137.828 Y143.943 E24.48894
G1 X138.093 Y143.531 E24.51338
G1 X138.471 Y143.117 E24.54135
G0 X138.637 Y143.517
G1 X139.103 Y143.107 E24.57231
G1 X139.498 Y142.88 E24.59504
G1 X139.926 Y142.725 E24.61775
G1 X140.592 Y142.638 E24.65126
G1 X159.408 Y142.638 E25.59
G1 X159.862 Y142.678 E25.61273
G1 X160.302 Y142.796 E25.63546
G1 X160.714 Y142.99 E25.65818
G1 X161.246 Y143.4 E25.69169
G1 X161.656 Y143.866 E25.72266
G1 X161.883 Y144.261 E25.74538
G1 X162.038 Y144.689 E25.76809
G1 X162.125 Y145.355 E25.8016
G1 X162.125 Y154.645 E26.26508
G1 X162.085 Y155.099 E26.28782
G1 X161.967 Y155.539 E26.31055
G1 X161.773 Y155.951 E26.33327
G1 X161.363 Y156.483 E26.36678
G1 X160.897 Y156.893 E26.39774
G1 X160.502 Y157.12 E26.42047
G1 X160.074 Y157.275 E26.44318
G1 X159.408 Y157.362 E26.47669
G1 X140.592 Y157.362 E27.41543
G1 X140.138 Y157.322 E27.43816
G1 X139.698 Y157.204 E27.46089
G1 X139.286 Y157.01 E27.48361
G1 X138.754 Y156.6 E27.51712
G1 X138.344 Y156.134 E27.54809
G1 X138.117 Y155.739 E27.57082
G1 X137.962 Y155.311 E27.59353
G1 X137.875 Y154.645 E27.62703
G1 X137.875 Y145.355 E28.09051
G1 X137.915 Y144.901 E28.11325
G1 X138.033 Y144.461 E28.13598
G1 X138.227 Y144.049 E28.1587
G1 X138.637 Y143.517 E28.19221
G0 X139.036 Y143.682
G1 X139.36 Y143.416 E28.21312
G1 X139.727 Y143.215 E28.234
G1 X140.127 Y143.088 E28.25494
G1 X140.592 Y143.038 E28.27827
G1 X159.408 Y143.038 E29.217
G1 X159.825 Y143.078 E29.2379
G1 X160.227 Y143.196 E29.25881
G1 X160.599 Y143.389 E29.27971
G1 X161.081 Y143.799 E29.31128
G1 X161.347 Y144.123 E29.3322
G1 X161.548 Y144.49 E29.35307
G1 X161.675 Y144.89 E29.37401
G1 X161.725 Y145.355 E29.39734
G1 X161.725 Y154.645 E29.86082
G1 X161.685 Y155.062 E29.88172
G1 X161.567 Y155.464 E29.90263
G1 X161.374 Y155.836 E29.92353
G1 X160.964 Y156.318 E29.9551
G1 X160.64 Y156.584 E29.97602
G1 X160.273 Y156.785 E29.99689
G1 X159.873 Y156.912 E30.01783
G1 X159.408 Y156.962 E30.04116
G1 X140.592 Y156.962 E30.9799
G1 X140.175 Y156.922 E31.0008
G1 X139.773 Y156.804 E31.0217
G1 X139.401 Y156.611 E31.04261
G1 X138.919 Y156.201 E31.07418
G1 X138.653 Y155.877 E31.09509
G1 X138.452 Y155.51 E31.11597
G1 X138.325 Y155.11 E31.13691
G1 X138.275 Y154.645 E31.16024
G1 X138.275 Y145.355 E31.62372
G1 X138.315 Y144.938 E31.64462
G1 X138.433 Y144.536 E31.66552
G1 X138.626 Y144.164 E31.68643
G1 X139.036 Y143.682 E31.718
G0 X139.319 Y143.965
G1 X139.614 Y143.727 E31.73691
G1 X139.952 Y143.556 E31.75581
G1 X140.318 Y143.459 E31.7747
G1 X140.592 Y143.438 E31.78841
G1 X159.408 Y143.438 E32.72714
G1 X159.785 Y143.478 E32.74606
G1 X160.145 Y143.596 E32.76496
G1 X160.472 Y143.786 E32.78383
G1 X160.798 Y144.082 E32.80579
G1 X161.036 Y144.377 E32.8247
G1 X161.207 Y144.715 E32.8436
G1 X161.304 Y145.081 E32.86249
G1 X161.325 Y145.355 E32.8762
G1 X161.325 Y154.645 E33.33968
G1 X161.285 Y155.022 E33.3586
G1 X161.167 Y155.382 E33.3775
G1 X160.977 Y155.709 E33.39636
G1 X160.681 Y156.035 E33.41833
G1 X160.386 Y156.273 E33.43724
G1 X160.048 Y156.444 E33.45614
G1 X159.682 Y156.541 E33.47503
G1 X159.408 Y156.562 E33.48874
G1 X140.592 Y156.562 E34.42748
G1 X140.215 Y156.522 E34.44639
G1 X139.855 Y156.404 E34.46529
G1 X139.528 Y156.214 E34.48416
G1 X139.202 Y155.918 E34.50613
G1 X138.964 Y155.623 E34.52504
G1 X138.793 Y155.285 E34.54394
G1 X138.696 Y154.919 E34.56283
G1 X138.675 Y154.645 E34.57654
G1 X138.675 Y145.355 E35.04002
G1 X138.715 Y144.978 E35.05893
G1 X138.833 Y144.618 E35.07783
G1 X139.023 Y144.291 E35.0967
G1 X139.319 Y143.965 E35.11867
G0 X139.602 Y144.248
G1 X139.865 Y144.042 E35.13533
G1 X140.169 Y143.903 E35.15201
G1 X140.592 Y143.838 E35.17336
G1 X159.408 Y143.838 E36.1121
G1 X159.74 Y143.878 E36.12878
G1 X160.052 Y143.995 E36.1454
G1 X160.515 Y144.365 E36.17497
G1 X160.721 Y144.628 E36.19164
G1 X160.86 Y144.932 E36.20832
G1 X160.925 Y145.355 E36.22967
G1 X160.925 Y154.645 E36.69315
G1 X160.885 Y154.977 E36.70983
G1 X160.768 Y155.289 E36.72645
G1 X160.398 Y155.752 E36.75602
G1 X160.135 Y155.958 E36.77269
G1 X159.831 Y156.097 E36.78937
G1 X159.408 Y156.162 E36.81072
G1 X140.592 Y156.162 E37.74945
G1 X140.26 Y156.122 E37.76614
G1 X139.948 Y156.005 E37.78276
G1 X139.485 Y155.635 E37.81233
G1 X139.279 Y155.372 E37.829
G1 X139.14 Y155.068 E37.84567
G1 X139.075 Y154.645 E37.86702
G1 X139.075 Y145.355 E38.3305
G1 X139.115 Y145.023 E38.34719
G1 X139.232 Y144.711 E38.36381
G1 X139.602 Y144.248 E38.39338
G0 X139.885 Y144.531
G1 X140.111 Y144.362 E38.40746
G1 X140.375 Y144.262 E38.42154
G1 X140.592 Y144.238 E38.43244
G1 X159.408 Y144.238 E39.37117
G1 X159.687 Y144.278 E39.38523
G1 X159.944 Y144.394 E39.3993
G1 X160.232 Y144.648 E39.41846
G1 X160.401 Y144.874 E39.43254
G1 X160.501 Y145.138 E39.44662
G1 X160.525 Y145.355 E39.45751
G1 X160.525 Y154.645 E39.92099
G1 X160.485 Y154.924 E39.93505
G1 X160.369 Y155.181 E39.94912
G1 X160.115 Y155.469 E39.96828
G1 X159.889 Y155.638 E39.98236
G1 X159.625 Y155.738 E39.99644
G1 X159.408 Y155.762 E40.00734
G1 X140.592 Y155.762 E40.94607
G1 X140.313 Y155.722 E40.96013
G1 X140.056 Y155.606 E40.9742
G1 X139.768 Y155.352 E40.99336
G1 X139.599 Y155.126 E41.00744
G1 X139.499 Y154.862 E41.02152
G1 X139.475 Y154.645 E41.03241
G1 X139.475 Y145.355 E41.49589
G1 X139.515 Y145.076 E41.50995
G1 X139.631 Y144.819 E41.52402
G1 X139.885 Y144.531 E41.54318
G0 X140.168 Y144.814
G1 X140.347 Y144.69 E41.55404
G1 X140.592 Y144.638 E41.56654
G1 X159.408 Y144.638 E42.50527
G1 X159.623 Y144.678 E42.51618
G1 X159.949 Y144.931 E42.53677
G1 X160.073 Y145.11 E42.54763
G1 X160.125 Y145.355 E42.56013
G1 X160.125 Y154.645 E43.02361
G1 X160.085 Y154.86 E43.03452
G1 X159.832 Y155.186 E43.05511
G1 X159.653 Y155.31 E43.06597
G1 X159.408 Y155.362 E43.07847
G1 X140.592 Y155.362 E44.0172
G1 X140.377 Y155.322 E44.02811
G1 X140.051 Y155.069 E44.0487
G1 X139.927 Y154.89 E44.05956
G1 X139.875 Y154.645 E44.07206
G1 X139.875 Y145.355 E44.53554
G1 X139.915 Y145.14 E44.54645
G1 X140.168 Y144.814 E44.56704
G0 X140.451 Y145.097
G1 X140.592 Y145.038 E44.57466
G1 X159.408 Y145.038 E45.5134
G1 X159.549 Y145.097 E45.52102
G1 X159.666 Y145.214 E45.52928
G1 X159.725 Y145.355 E45.5369
G1 X159.725 Y154.645 E46.00038
G1 X159.666 Y154.786 E46.00801
